!! Stephen C. Foster, "The Glendy Burk"
!! from 'Stephen Foster Song Book' Dover Publications (New York) pp. 42-44
!! NOTE:  Leading and trailing bars of rest have been omitted.
**kern
*M2/4
*MM72
*G:
8d
=1
8g
8b
8a
16cc
16cc
=2
16b
16b
8dd
8g
16g
16a
=3
16b
16b
8cc
8dd
8ee
=4
4.a
8d
=5
8g
8b
8a
16cc
16cc
=6
16b
16b
8dd
8g
16g
16a
=7
8b
8b
8a
16a
16a
=8
4.g
8d
=9
8g
8b
8a
16cc
16cc
=10
8b
8dd
8.g
16a
=11
8.b
16cc
8dd
8ee
=12
4.a
8d
=13
8g
8b
8a
8cc
=14
16b
16dd
16dd
16b
8g
16g
16a
=15
8.b
16cc
8a
8a
=16
4.g
8r
=17
8.dd
16dd
8.ee
16dd
=18
8b
4dd
8d
=19
8.g
16g
8a
8a
=20
4.b
8d
=21
8g
8b
8a
8cc
=22
16b
16dd
16dd
16b
8g
16g
16a
=23
8.b
16cc
8a
8a
=24
4.g
8d
=25
8g
8b
8a
16cc
16cc
=26
16b
16b
8dd
8g
16g
16a
=27
16b
16b
8cc
8dd
8ee
=28
4.a
8d
=29
8g
8b
8a
16cc
16cc
=30
16b
16b
8dd
8g
16g
16a
=31
8b
8b
8a
16a
16a
=32
4.g
8d
=33
8g
8b
8a
16cc
16cc
=34
8b
8dd
8.g
16a
=35
8.b
16cc
8dd
8ee
=36
4.a
8d
=37
8g
8b
8a
8cc
=38
16b
16dd
16dd
16b
8g
16g
16a
=39
8.b
16cc
8a
8a
=40
4.g
8r
=41
8.dd
16dd
8.ee
16dd
=42
8b
4dd
8d
=43
8.g
16g
8a
8a
=44
4.b
8d
=45
8g
8b
8a
8cc
=46
16b
16dd
16dd
16b
8g
16g
16a
=47
8.b
16cc
8a
8a
=48
4.g
8r
==
*-
